X:1
T:I Dovregubbens hall
T:Edvard Grieg
T:I Dovregubbens hall
T:Peer Gynt, Suite No.1, Op.46
T:Public Domain
T:Public Domain
T:Public Domain
T:Public Domain
T:Public Domain
T:Public Domain
C:Edvard Grieg
Z:Public Domain
%%score { ( 1 3 ) | 2 }
L:1/8
Q:1/4=138
M:4/4
K:D
V:1 bass nm="Piano"
V:3 bass 
V:2 bass 
V:1
!p!"^Alla marcia e molto marcato" !>!!fermata![F,F]8 |!pp! .!1!B,,,.C,,.D,,.E,, .F,,.D,, .F,,2 | %2
 .^E,,.C,, .E,,2 .=E,,.=C,, .E,,2 | .!1!B,,,.^C,,.D,,.E,, .F,,.!1!D,,.F,,.B,, | %4
 .A,,.F,,.D,,.F,, !>!A,,4 | .!1!B,,.C,.D,.E, .F,.D, .F,2 | .^E,.C, .E,2 .=E,.=C, .E,2 | %7
 .!1!B,,.^C,.D,.E, .F,.!1!D,.F,.B, | .A,.F,.D,.F, !>![A,,A,]4 | %9
 .!1!F,,.^G,,.^A,,.B,, .C,.!2!A,, .C,2 | .D,.^A,, .D,2 .C,.A,, .C,2 | %11
 .!1!F,,.^G,,.^A,,.B,, .C,.!2!A,, .C,2 | .D,.^A,, .D,2 !>!C,4 | .!1!F,.^G,.^A,.B, .C.!2!A, .C2 | %14
 .D.^A, .D2 .C.A, .C2 | .!1!F,.^G,.^A,.B, .C.!2!A, .C2 | .D.^A, .D2 !>![C,C]4 | %17
 .!1!B,,,.C,,.D,,.E,, .F,,.D,, .F,,2 | .^E,,.C,, .E,,2 .=E,,.=C,, .E,,2 | %19
 .!1!B,,,.^C,,.D,,.E,, .F,,.!1!D,,.F,,.B,, | .A,,.F,,.D,,.F,, !>!A,,4 | %21
 .!1!B,,.C,.D,.E, .F,.D, .F,2 | .^E,.C, .E,2 .=E,.=C, .E,2 | .!1!B,,.^C,.D,.E, .F,.!1!D,.F,.B, | %24
 .F,.D,.F,.B, !>!B,,4 |[K:treble]!p! .!2!B,.C.[F,D].E .!4!F.D .[F,F]2 | %26
 .!4!^E.C .[F,E]2 .!4!=E.=C .[F,E]2 | .!2!B,.^C.[F,D].E .!3!F.D.!2!F.!4!B | .!5!A.F.[A,D].F !>!A4 | %29
 .!2!B.c.d.!5!e .!4!f.d .f2 | .!4!^e.c .e2 .!4!=e.=c e2 | .!2!B.^c.d.e .!3!f.d.!2!f.!4!b | %32
 .!5!a.f.d.f !>!a4 |"_cresc." .!1!F.^G.^A.=B .c.A .!4!c2 | .d.!2!^A .!5!d2 .!4!c.A !5!c2 | %35
 .!1!F.^G.^A.=B .c.A .!4!c2 | .d.!2!^A .!5!d2 !>!!4!c4 | .f.^g.[f^a].=b .c'.a .[fac']2 | %38
 .d'.^a .[fad']2 .c'.a .[fac']2 | .f.^g.[f^a].b .c'.a .[fac']2 | .d'.^a .[fad']2 !>!c'4 | %41
!mf!"_cresc." .!2!B,.C.[F,D].!5!=E .!4!F.D .[F,F]2 | .^E.C .[F,E]2 .=E.=C .[F,E]2 | %43
 .!2!B,.^C.[F,D].!5!=E .!4!F.D.!3![B,F].B | .!4!A.!3!F.[A,D].!4!F !>!A4 | %45
 .!2!B.c.d.!5!=e .!4!f.!2!d f2 | .!4!^e.!2!c e2 .!4!=e.=c .!5!e2 | .!2!B.^c.d.!5!e .!4!f.d.f.b | %48
 .!4!f.d.!3!f.b !>!B4 |!ff!"^Più vivo"!8va(! .!1!b.c'.d'.e' !>!!5!f'.d' .f'2 | %50
 .^e'.c' .e'2 .=e'.=c' .e'2 |[K:treble] .!1!b.^c'.d'.e' .f'.!2!d'.!3!f'.b' | %52
 .a'.!4!f'.d'.f' !>!a'4 | !>!b.c'.d'.e' !>!f'.d' .f'2 | !>!^e'.c' .e'2 !>!!4!=e'.=c' .e'2 | %55
 .!1!b.^c'.d'.e' .f'.d'.f'.b' | .a'.f'.d'.f' !>!a'4 | .f'.^g'.^a'.b' !>!c''.!4!a' !>!c''2 | %58
 !>![d'f'd''].!3!^a' !>![d'f'd'']2 !>![c'f'c''].a' !>![c'f'c'']2 | %59
 .!1!f'.[f'^g'].[f'^a'].[f'b'] !>![c'f'c''].!4![c'f'a'] !>![c'f'c'']2 | %60
 !>![d'f'd''].!3![d'f'^a'] !>![d'f'd'']2 !>![c'f'c'']4 | .!1!f'.^g'.^a'.b' !>!c''.a' !>!c''2 | %62
 !>![^d'f'^d''].^a' !>![d'f'd'']2 !>![c'f'c''].a' !>![c'f'c'']2 | %63
 .f'.[f'^g'].[f'^a'].[f'b'] !>![c'f'c''].[c'f'a'] !>![c'f'c'']2 | %64
 !>![^d'f'^d''].[d'f'^a'] !>![d'f'd'']2 !>![c'f'c'']4 | .!1!b.c'.=d'.e' !>!f'.d' .f'2 | %66
 !>!^e'.c' .e'2 !>!!4!=e'.=c' .e'2 | .!1!b.^c'.d'.e' .f'.!2!d'.f'.b' | .a'.!4!f'.d'.f' !>!a'4 | %69
 .!1!b.[bc'].[bd'].[be'] !>![bf'].[bd'] .[bd'f']2 | %70
 !>![b^e'].[bc'] .[bc'e']2 !>![b=e'].[b=c'] .[bc'e']2 | %71
 .!1!b.[b^c'].[bd'].[be'] .[bf'].!2![bd'].!3![bf'].[bb'] | .[bf'].[bd'].[bf'].[bb'] !>!b4 | %73
 z2{!2!^g'=a'^a'} .[d'b']2 z4 | z2{!2!^g'=a'^a'} .[d'b']2!8va)! z4 | %75
[K:treble] .!1!B.c.d.e .f.!1!d.f.b | .^a.!1!f.a.c' !>!b4 | %77
 z2!8va(!{!2!^g'=a'^a'} .!1!!5![d'b']2 z4 | z2{^g'=a'^a'} .[d'b']2 z4 | .b.c'.d'.e' .f'.d'.f'.b' | %80
 .^a'.f'.a'.c'' !>!b'4 | z2{!2!^g'=a'^a'} .[d'b']2 z4 | z2{^g'=a'^a'} .[d'b']2 z4 | %83
 z2!pp!{^g'=a'^a'} .[d'b']2{g'=a'^a'} .[d'b']2{g'=a'^a'} .[d'b']2 | %84
{^g'=a'^a'} .[d'b']2!<(!{g'=a'^a'} .[d'b']2{g'=a'^a'} .[d'b']2{g'=a'^a'} .[d'b']2!8va)!!<)! | z8 | %86
 z8 |!ff! z2!8va(!{^g'=a'^a'} .[d'b']2!8va)! z4 |] %88
V:2
 !fermata!z8 |!8vb(! .B,,,,2"^e sempre staccato" .F,,,2 .B,,,,2 .F,,,2 | %2
 .B,,,,2 .F,,,2 .B,,,,2 .F,,,2 | .B,,,,2 .F,,,2 .B,,,,2 .F,,,2 | .!4!D,,,2 .A,,,2 .D,,,2 .A,,,2 | %5
 .B,,,,2 .F,,,2 .B,,,,2 .F,,,2 | .B,,,,2 .F,,,2 .B,,,,2 .F,,,2 | .B,,,,2 .F,,,2 .B,,,,2 .F,,,2 | %8
 .!4!D,,,2 .A,,,2 .D,,,2 .A,,,2 | .!3!F,,,2 .C,,2 .F,,,2 .C,,2 | %10
 .D,,,2 .!2!^A,,,2 .!3!F,,,2 .C,,2 | .F,,,2 .C,,2 .F,,,2 .C,,2 | %12
 .D,,,2 .!2!^A,,,2 .!3!F,,,2 .C,,2 | .F,,,2 .C,,2 .F,,,2 .C,,2 | %14
 .D,,,2 .!2!^A,,,2 .!3!F,,,2 .C,,2 | .F,,,2 .C,,2 .F,,,2 .C,,2 | .D,,,2 .^A,,,2 .F,,,2 .C,,2 | %17
 .B,,,,2 .F,,,2 .B,,,,2 .F,,,2 | .B,,,,2 .F,,,2 .B,,,,2 .F,,,2 | .B,,,,2 .F,,,2 .B,,,,2 .F,,,2 | %20
 .!4!D,,,2 .A,,,2 .D,,,2 .A,,,2 | .B,,,,2 .F,,,2 .B,,,,2 .F,,,2 | .B,,,,2 .F,,,2 .B,,,,2 .F,,,2 | %23
 .B,,,,2 .B,,,2 .A,,,2 .G,,,2 | .F,,,2 .E,,,2 .D,,,2 .C,,,2 | %25
!ped! .B,,,,2!8vb)! (!3![F,,D,]/!ped-up!^E,,/F,,)!ped! .B,,,2 ([F,,D,]/E,,/F,,) | %26
!ped! .B,,,2!ped-up! (!2![F,,C,]/^E,,/!ped-up!F,,)!ped! .B,,,2 (!2![F,,=C,]/E,,/F,,) | %27
!ped! .B,,,2!ped-up! ([F,,D,]/^E,,/!ped-up!F,,)!ped! .B,,,2 ([F,,D,]/E,,/F,,) | %28
!ped! .D,,2!ped-up! (!3![A,,F,]/^G,,/!ped-up!A,,)!ped! .D,,2 ([A,,F,]/G,,/A,,) | %29
!ped! .B,,,2 ([F,,D,]/^E,,/!ped-up!F,,)!ped! .B,,,2 ([F,,D,]/E,,/F,,)!ped-up! | %30
!ped! .B,,,2!ped-up! ([F,,C,]/^E,,/!ped-up!F,,)!ped! B,,,2 ([F,,=C,]/E,,/F,,) | %31
!ped! .B,,,2!ped-up! ([F,,D,]/^E,,/!ped-up!F,,)!ped! .B,,,2 ([F,,D,]/E,,/F,,) | %32
!ped! .D,,2!ped-up! (!3![A,,F,]/^G,,/!ped-up!A,,)!ped! .D,,2 ([A,,F,]/G,,/A,,) | %33
!ped! .F,,2 (!3![C,^A,]/^B,,/!ped-up!C,)!ped! .F,,2 ([C,A,]/B,,/C,)!ped-up! | %34
!ped! .D,,2!ped-up! (!3![D,^A,]/C,/!ped-up!D,)!ped! .F,,2 (!3![C,A,]/^B,,/C,) | %35
!ped! .F,,2!ped-up! ([C,^A,]/^B,,/!ped-up!C,)!ped! .F,,2 ([C,A,]/B,,/C,) | %36
!ped! .D,,2!ped-up! ([D,^A,]/C,/!ped-up!D,)!ped! .F,,2 ([C,A,]/^B,,/C,) | %37
!ped! .F,,2 ([C,^A,]/^B,,/!ped-up!C,)!ped! .F,,2 ([C,A,]/B,,/C,)!ped-up! | %38
!ped! .D,,2!ped-up! ([D,^A,]/C,/!ped-up!D,)!ped! .F,,2 ([C,A,]/^B,,/C,) | %39
!ped! .F,,2!ped-up! ([C,^A,]/^B,,/!ped-up!C,)!ped! .F,,2 ([C,A,]/B,,/C,) | %40
!ped! .D,,2!ped-up! ([D,^A,]/C,/!ped-up!D,)!ped! .F,,2 ([C,A,]/^B,,/C,) | %41
!ped! (3B,,,!3!^E,,!2!F,,(3!1!D,!3!E,,!2!F,,!ped! (3B,,,!ped-up!!3!E,,!2!F,,(3D,!3!E,,!2!F,,!ped-up! | %42
!ped! (3B,,,!ped-up!^E,,F,,(3C,E,,F,,!ped! (3B,,,!ped-up!E,,F,,(3=C,E,,F,, | %43
 (3B,,,^E,,F,,(3D,E,,F,, (3B,,,E,,F,,(3D,E,,F,, | %44
 (3D,,!3!^G,,!2!A,,(3F,!3!G,,!2!A,, (3D,,!3!G,,!2!A,,(3F,!3!G,,!2!A,, | %45
 (3B,,,^E,,F,,(3D,E,,F,, (3B,,,E,,F,,(3D,E,,F,, | (3B,,,^E,,F,,(3C,E,,F,, (3B,,,E,,F,,(3=C,E,,F,, | %47
!ped! (3B,,,^E,,F,, .[B,,B,]2 .!5!!4![=A,,B,,=A,]2!ped-up! .!3![G,,B,,G,]2 | %48
 [F,,B,,F,]2 !>!!2![E,,B,,E,]2 !>![D,,B,,D,]2 !>![C,,B,,C,]2 | %49
!ped! !>![B,,,B,,].!2!A,,.!3!G,,.!4!F,,!ped-up!!ped! !>![B,,,B,,]!ped-up!.A,,.G,,.F,, | %50
!ped! !>![B,,,B,,]!ped-up!.A,,.G,,.F,, !>![B,,,B,,].A,,.G,,.F,, | %51
 !>![B,,,B,,].A,,.G,,.F,, !>![B,,,B,,].A,,.G,,.F,, | !>![D,,D,].C,.B,,.A,, !>![D,,D,].C,.B,,.A,, | %53
 !>![B,,,B,,].A,,.G,,.F,, !>![B,,,B,,].A,,.G,,.F,, | %54
 !>![B,,,B,,].A,,.G,,.F,, !>![B,,,B,,].A,,.G,,.F,, | %55
 !>![B,,,B,,].A,,.G,,.F,, !>![B,,,B,,].A,,.G,,.F,, | !>![D,,D,].C,.B,,.A,, !>![D,,D,].C,.B,,.A,, | %57
"^sempre stretto sin al fine" !>![F,,F,].E,.D,.C, !>![F,,F,].E,.D,.C, | %58
 !>![D,,D,].!4!C,.!3!D,.!2!E, !>![F,,F,].E,.D,.C, | !>![F,,F,].E,.D,.C, !>![F,,F,].E,.D,.C, | %60
 !>![D,,D,].!4!C,.D,.E, !>![F,,F,].E,.D,.C, | !>![F,,F,].^E,.^D,.C, !>![F,,F,].E,.D,.C, | %62
 !>![^D,,^D,].!4!C,.D,.^E, !>![F,,F,].E,.D,.C, | !>![F,,F,].^E,.^D,.C, !>![F,,F,].E,.D,.C, | %64
 !>![^D,,^D,].!4!C,.D,.^E, !>![F,,F,].E,.D,.C, | %65
 !>![B,,,B,,].A,,.G,,.F,, !>![B,,,B,,].A,,.G,,.F,, | %66
 !>![B,,,B,,].A,,.G,,.F,, !>![B,,,B,,].A,,.G,,.F,, | %67
 !>![B,,,B,,].A,,.G,,.F,, !>![B,,,B,,].A,,.G,,.F,, | !>![D,,D,].C,.B,,.A,, !>![D,,D,].C,.B,,.A,, | %69
 !>![B,,,B,,].A,,.G,,.F,, !>![B,,,B,,].A,,.G,,.F,, | %70
 !>![B,,,B,,].A,,.G,,.F,, !>![B,,,B,,].A,,.G,,.F,, | %71
 !>![B,,,B,,].A,,.G,,.F,, !>![B,,,B,,].A,,.G,,.F,, | %72
 !>![B,,,B,,].A,,.G,,.F,, !>![B,,,B,,].A,,.G,,.F,, | %73
!ped! !>![B,,,B,,]2!ped-up! .!4![D,^E,^G,B,]2 z4 |!ped! !>![B,,,B,,]2 .!4![D,F,B,]2!ped-up! z4 | %75
!ped! !>![=G,,=G,]2 !4![D,G,B,]2!ped-up!!ped! !>![F,,F,]2!ped-up! !4![D,F,B,]2 | %76
!ped! !>![F,,,F,,]2!ped-up! [C,F,^A,]2!ped! !>![B,,,B,,]2!ped-up! !4![D,F,B,]2 | %77
!ped! !>![B,,,B,,]2!ped-up! .!4![D,^E,^G,B,]2 z4 |!ped! !>![B,,,B,,]2 .!4![D,F,B,]2!ped-up! z4 | %79
!ped! !>![=G,,=G,]2 !4![D,G,B,]2!ped-up!!ped! !>![F,,F,]2!ped-up! !4![D,F,B,]2 | %80
!ped! !>![F,,,F,,]2!ped-up! !4![E,F,^A,C]2!ped! !>![B,,,B,,]2!ped-up! !4![D,F,B,]2 | %81
!ped! !>![B,,,B,,]2!ped-up! .!4![D,^E,^G,B,]2 z4 |!ped! !>![B,,,B,,]2 .[D,^E,^G,B,]2!ped-up! z4 | %83
!ped! !>![B,,,B,,]2 .!4![D,^E,^G,B,]2!ped-up! .[D,E,G,B,]2 .[D,E,G,B,]2 | %84
"^cresc. molto" .[D,^E,^G,B,]2 .[D,E,G,B,]2 .[D,E,G,B,]2 .[D,E,G,B,]2 | %85
 z4!ped-up!!ped! !//-!B,,,2 B,,2 |!<(! !//-!B,,,2 B,,2 !//-!B,,,2 B,,2!<)! | %87
 [B,,,,B,,,]2 .[B,,D,F,B,]2 z4 |] %88
V:3
 x8 | x8 | x8 | x8 | x8 | x8 | x8 | x8 | x8 | x8 | x8 | x8 | x8 | x8 | x8 | x8 | x8 | x8 | x8 | %19
 x8 | x8 | x8 | x8 | x8 | x8 |[K:treble] x8 | x8 | x8 | x4 z2 [A,D]2 | z2 F2 z2 F2 | z2 F2 z2 F2 | %31
 z2 F2 z4 | z2 A2 z2 [Ad]2 | z2 F2 z2 !1!!2![F^A]2 | z2 !1!!3![F^A]2 z2 !1!!3![FA]2 | %35
 z2 F2 z2 !1!!2![F^A]2 | z2 !1!!3![F^A]2 z2 [FA]2 | x8 | x8 | x8 | x4 z2 [f^a]2 | x8 | x8 | x8 | %44
 x4 z2 [A,D]2 | z2 F2 z2 F2 | z2 F2 z2 F2 | z4 z2 [Bd]2 | z2 [Bd]2 z4 |!8va(! b4 b4 | b4 b4 | %51
[K:treble] b4 !1!b4 | [ad']4 [ad']4 | b4 b4 | b4 b4 | b4 b4 | [ad']4 [ad']4 | f'4 [c'f']2 [c'f']2 | %58
 x8 | x8 | x8 | f'4 [c'f']2 [c'f']2 | x8 | x8 | x8 | b4 b4 | b4 b4 | b4 b4 | [ad']4 [ad']4 | x8 | %70
 x8 | x8 | x8 | x8 | x4!8va)! x4 |[K:treble] x8 | x8 | x2!8va(! x6 | x8 | x8 | x8 | x8 | x8 | x8 | %84
 x8!8va)! | x8 | x8 | x2!8va(! x2!8va)! x4 |] %88

